Numix/16/status/indicator-keyboard-Uk-3.svg

<?xml version="1.0" encoding="UTF-8" standalone="no"?>
<svg
   xmlns:dc="http://purl.org/dc/elements/1.1/"
   xmlns:cc="http://creativecommons.org/ns#"
   xmlns:rdf="http://www.w3.org/1999/02/22-rdf-syntax-ns#"
   xmlns:svg="http://www.w3.org/2000/svg"
   xmlns="http://www.w3.org/2000/svg"
   xmlns:sodipodi="http://sodipodi.sourceforge.net/DTD/sodipodi-0.dtd"
   xmlns:inkscape="http://www.inkscape.org/namespaces/inkscape"
   viewBox="0 0 16 16"
   id="svg2"
   version="1.1"
   inkscape:version="0.91 r13725"
   sodipodi:docname="indicator-keyboard-Uk-3.svg">
  <metadata
     id="metadata14">
    <rdf:RDF>
      <cc:Work
         rdf:about="">
        <dc:format>image/svg+xml</dc:format>
        <dc:type
           rdf:resource="http://purl.org/dc/dcmitype/StillImage" />
      </cc:Work>
    </rdf:RDF>
  </metadata>
  <defs
     id="defs12" />
  <sodipodi:namedview
     pagecolor="#ffffff"
     bordercolor="#666666"
     borderopacity="1"
     objecttolerance="10"
     gridtolerance="10"
     guidetolerance="10"
     inkscape:pageopacity="0"
     inkscape:pageshadow="2"
     inkscape:window-width="640"
     inkscape:window-height="480"
     id="namedview10"
     showgrid="false"
     inkscape:zoom="14.75"
     inkscape:cx="8"
     inkscape:cy="8"
     inkscape:window-x="65"
     inkscape:window-y="24"
     inkscape:window-maximized="0"
     inkscape:current-layer="svg2" />
  <path
     style="fill:#ececec;fill-opacity:1"
     d="M 1.5996094 0 C 0.71320937 2.9605947e-16 0 0.71320937 0 1.5996094 L 0 14.400391 C 2.9605947e-16 15.286791 0.71320937 16 1.5996094 16 L 14.400391 16 C 15.286791 16 16 15.286791 16 14.400391 L 16 1.5996094 C 16 0.71320937 15.286791 0 14.400391 0 L 1.5996094 0 z M 8.3925781 4.1113281 L 8.3925781 8.5390625 C 8.5425781 8.3950625 8.7104844 8.2309219 8.8964844 8.0449219 C 9.0824844 7.8589219 9.2690781 7.6705156 9.4550781 7.4785156 C 9.6470781 7.2865156 9.8261406 7.0999219 9.9941406 6.9199219 C 10.162141 6.7399219 10.305781 6.5813594 10.425781 6.4433594 L 11.128906 6.4433594 C 10.990906 6.5873594 10.834156 6.7496875 10.660156 6.9296875 C 10.486156 7.1096875 10.303328 7.2980937 10.111328 7.4960938 C 9.9253281 7.6880938 9.7387344 7.8765 9.5527344 8.0625 L 9.0488281 8.5664062 C 9.2348281 8.6924062 9.4345313 8.8547344 9.6445312 9.0527344 C 9.8605313 9.2507344 10.069437 9.4671719 10.273438 9.7011719 C 10.483438 9.9291721 10.679375 10.166109 10.859375 10.412109 C 11.045375 10.652109 11.200172 10.879703 11.326172 11.095703 L 10.632812 11.095703 C 10.488812 10.855703 10.324672 10.622531 10.138672 10.394531 C 9.9586718 10.160531 9.7665 9.9403283 9.5625 9.7363281 C 9.3645 9.5323281 9.1629844 9.3476875 8.9589844 9.1796875 C 8.7609844 9.0116875 8.5725781 8.8698594 8.3925781 8.7558594 L 8.3925781 11.095703 L 7.8066406 11.095703 L 7.8066406 4.2207031 L 8.3925781 4.1113281 z M 1.6992188 4.859375 L 2.3105469 4.859375 L 2.3105469 8.7011719 C 2.3105469 9.0431719 2.3497344 9.34175 2.4277344 9.59375 C 2.5117344 9.83975 2.6255313 10.043078 2.7695312 10.205078 C 2.9135312 10.367078 3.0889688 10.486453 3.2929688 10.564453 C 3.4969688 10.642453 3.7245625 10.681641 3.9765625 10.681641 C 4.2285625 10.681641 4.4561562 10.642453 4.6601562 10.564453 C 4.8641562 10.486453 5.0376406 10.367078 5.1816406 10.205078 C 5.3256406 10.043078 5.437625 9.83975 5.515625 9.59375 C 5.599625 9.34175 5.640625 9.0431719 5.640625 8.7011719 L 5.640625 4.859375 L 6.2539062 4.859375 L 6.2539062 8.7832031 C 6.2539062 9.1252031 6.2109531 9.4460938 6.1269531 9.7460938 C 6.0489531 10.040094 5.9202344 10.297531 5.7402344 10.519531 C 5.5602344 10.741531 5.3232969 10.916969 5.0292969 11.042969 C 4.7412969 11.168969 4.3905625 11.230469 3.9765625 11.230469 C 3.5625625 11.230469 3.2080625 11.168969 2.9140625 11.042969 C 2.6260625 10.916969 2.3928906 10.741531 2.2128906 10.519531 C 2.0328906 10.297531 1.9004062 10.040094 1.8164062 9.7460938 C 1.7384062 9.4460938 1.6992187 9.1252031 1.6992188 8.7832031 L 1.6992188 4.859375 z M 12.931641 8.7539062 C 13.134441 8.7539062 13.308825 8.7793781 13.453125 8.8300781 C 13.601325 8.8807781 13.722812 8.953275 13.820312 9.046875 C 13.917812 9.136575 13.990309 9.2463 14.037109 9.375 C 14.083909 9.4997999 14.107422 9.6350031 14.107422 9.7832031 C 14.107422 10.021103 14.042763 10.217041 13.914062 10.369141 C 13.789262 10.517341 13.628587 10.625106 13.429688 10.691406 C 13.538888 10.718706 13.642741 10.759859 13.744141 10.818359 C 13.849441 10.872959 13.943491 10.945456 14.025391 11.035156 C 14.107291 11.120956 14.173909 11.226762 14.224609 11.351562 C 14.275309 11.476363 14.300781 11.623316 14.300781 11.791016 C 14.300781 11.962616 14.269431 12.119372 14.207031 12.263672 C 14.148531 12.407972 14.0584 12.535331 13.9375 12.644531 C 13.8205 12.749831 13.671581 12.834084 13.488281 12.896484 C 13.304981 12.954984 13.08945 12.984375 12.84375 12.984375 C 12.71505 12.984375 12.595528 12.974578 12.486328 12.955078 C 12.381028 12.939478 12.288931 12.919884 12.207031 12.896484 C 12.125131 12.873084 12.054594 12.849572 11.996094 12.826172 C 11.941494 12.802772 11.900347 12.783178 11.873047 12.767578 L 11.972656 12.427734 C 11.996056 12.443334 12.035244 12.462928 12.089844 12.486328 C 12.144444 12.509728 12.209103 12.533241 12.283203 12.556641 C 12.361203 12.576141 12.445462 12.593775 12.539062 12.609375 C 12.636562 12.624975 12.742369 12.632813 12.855469 12.632812 C 13.225969 12.632812 13.490491 12.556397 13.650391 12.404297 C 13.810291 12.248297 13.890625 12.040597 13.890625 11.779297 C 13.890625 11.607697 13.857316 11.464662 13.791016 11.351562 C 13.728616 11.238462 13.642397 11.148331 13.529297 11.082031 C 13.420097 11.011831 13.290778 10.962847 13.142578 10.935547 C 12.998278 10.904347 12.843488 10.888672 12.679688 10.888672 L 12.621094 10.888672 L 12.621094 10.574219 L 12.755859 10.574219 C 12.861159 10.574219 12.968925 10.564422 13.078125 10.544922 C 13.191225 10.521522 13.293112 10.480375 13.382812 10.421875 C 13.476412 10.363375 13.550875 10.285 13.609375 10.1875 C 13.671775 10.09 13.703125 9.9646001 13.703125 9.8125 C 13.703125 9.6838 13.681572 9.5760281 13.638672 9.4863281 C 13.595772 9.3927281 13.538944 9.3182719 13.464844 9.2636719 C 13.394644 9.2090719 13.310391 9.1698844 13.212891 9.1464844 C 13.119291 9.1191844 13.019363 9.1054687 12.914062 9.1054688 C 12.703462 9.1054688 12.538875 9.1348594 12.421875 9.1933594 C 12.304875 9.2518594 12.210819 9.3067219 12.136719 9.3574219 L 11.972656 9.0585938 C 12.011656 9.0312937 12.060641 8.9999437 12.119141 8.9648438 C 12.181541 8.9297437 12.254037 8.8964344 12.335938 8.8652344 C 12.417838 8.8340344 12.506016 8.8085625 12.603516 8.7890625 C 12.704916 8.7656625 12.814641 8.7539062 12.931641 8.7539062 z "
     id="path4" />
</svg>

<svg xmlns="http://www.w3.org/2000/svg" viewBox="0 0 16 16">
 <path d="m 1.6 0 c -0.886 0 -1.6 0.713 -1.6 1.6 l 0 12.801 c 0 0.886 0.713 1.6 1.6 1.6 l 12.801 0 c 0.886 0 1.6 -0.713 1.6 -1.6 l 0 -12.801 c 0 -0.886 -0.713 -1.6 -1.6 -1.6 l -12.801 0 z m 6.793 4.111 l 0 4.428 c 0.15 -0.144 0.318 -0.308 0.504 -0.494 c 0.186 -0.186 0.373 -0.374 0.559 -0.566 c 0.192 -0.192 0.371 -0.379 0.539 -0.559 c 0.168 -0.18 0.312 -0.339 0.432 -0.477 l 0.703 0 c -0.138 0.144 -0.295 0.306 -0.469 0.486 c -0.174 0.18 -0.357 0.368 -0.549 0.566 c -0.186 0.192 -0.373 0.38 -0.559 0.566 l -0.504 0.504 c 0.186 0.126 0.386 0.288 0.596 0.486 c 0.216 0.198 0.425 0.414 0.629 0.648 c 0.21 0.228 0.406 0.465 0.586 0.711 c 0.186 0.24 0.341 0.468 0.467 0.684 l -0.693 0 c -0.144 -0.24 -0.308 -0.473 -0.494 -0.701 c -0.18 -0.234 -0.372 -0.454 -0.576 -0.658 c -0.198 -0.204 -0.4 -0.389 -0.604 -0.557 c -0.198 -0.168 -0.386 -0.31 -0.566 -0.424 l 0 2.34 l -0.586 0 l 0 -6.875 l 0.586 -0.109 z m -6.693 0.748 l 0.611 0 l 0 3.842 c 0 0.342 0.039 0.641 0.117 0.893 c 0.084 0.246 0.198 0.449 0.342 0.611 c 0.144 0.162 0.319 0.281 0.523 0.359 c 0.204 0.078 0.432 0.117 0.684 0.117 c 0.252 0 0.48 -0.039 0.684 -0.117 c 0.204 -0.078 0.377 -0.197 0.521 -0.359 c 0.144 -0.162 0.256 -0.365 0.334 -0.611 c 0.084 -0.252 0.125 -0.551 0.125 -0.893 l 0 -3.842 l 0.613 0 l 0 3.924 c 0 0.342 -0.043 0.663 -0.127 0.963 c -0.078 0.294 -0.207 0.551 -0.387 0.773 c -0.18 0.222 -0.417 0.397 -0.711 0.523 c -0.288 0.126 -0.639 0.188 -1.053 0.188 c -0.414 0 -0.769 -0.061 -1.063 -0.188 c -0.288 -0.126 -0.521 -0.301 -0.701 -0.523 c -0.18 -0.222 -0.312 -0.479 -0.396 -0.773 c -0.078 -0.3 -0.117 -0.621 -0.117 -0.963 l 0 -3.924 z m 11.232 3.895 c 0.203 0 0.377 0.025 0.521 0.076 c 0.148 0.051 0.27 0.123 0.367 0.217 c 0.098 0.09 0.17 0.199 0.217 0.328 c 0.047 0.125 0.07 0.26 0.07 0.408 c 0 0.238 -0.065 0.434 -0.193 0.586 c -0.125 0.148 -0.285 0.256 -0.484 0.322 c 0.109 0.027 0.213 0.068 0.314 0.127 c 0.105 0.055 0.199 0.127 0.281 0.217 c 0.082 0.086 0.149 0.192 0.199 0.316 c 0.051 0.125 0.076 0.272 0.076 0.439 c 0 0.172 -0.031 0.328 -0.094 0.473 c -0.059 0.144 -0.149 0.272 -0.27 0.381 c -0.117 0.105 -0.266 0.19 -0.449 0.252 c -0.183 0.059 -0.399 0.088 -0.645 0.088 c -0.129 0 -0.248 -0.01 -0.357 -0.029 c -0.105 -0.016 -0.197 -0.035 -0.279 -0.059 c -0.082 -0.023 -0.152 -0.047 -0.211 -0.07 c -0.055 -0.023 -0.096 -0.043 -0.123 -0.059 l 0.1 -0.34 c 0.023 0.016 0.063 0.035 0.117 0.059 c 0.055 0.023 0.119 0.047 0.193 0.07 c 0.078 0.019 0.162 0.037 0.256 0.053 c 0.098 0.016 0.203 0.023 0.316 0.023 c 0.37 0 0.635 -0.076 0.795 -0.229 c 0.16 -0.156 0.24 -0.364 0.24 -0.625 c 0 -0.172 -0.033 -0.315 -0.1 -0.428 c -0.062 -0.113 -0.149 -0.203 -0.262 -0.27 c -0.109 -0.07 -0.239 -0.119 -0.387 -0.146 c -0.144 -0.031 -0.299 -0.047 -0.463 -0.047 l -0.059 0 l 0 -0.314 l 0.135 0 c 0.105 0 0.213 -0.01 0.322 -0.029 c 0.113 -0.023 0.215 -0.065 0.305 -0.123 c 0.094 -0.059 0.168 -0.137 0.227 -0.234 c 0.062 -0.098 0.094 -0.223 0.094 -0.375 c 0 -0.129 -0.022 -0.236 -0.064 -0.326 c -0.043 -0.094 -0.1 -0.168 -0.174 -0.223 c -0.07 -0.055 -0.154 -0.094 -0.252 -0.117 c -0.094 -0.027 -0.194 -0.041 -0.299 -0.041 c -0.211 0 -0.375 0.029 -0.492 0.088 c -0.117 0.059 -0.211 0.113 -0.285 0.164 l -0.164 -0.299 c 0.039 -0.027 0.088 -0.059 0.146 -0.094 c 0.062 -0.035 0.135 -0.068 0.217 -0.1 c 0.082 -0.031 0.17 -0.057 0.268 -0.076 c 0.101 -0.023 0.211 -0.035 0.328 -0.035 z" style="fill:#ececec;fill-opacity:1"/>
</svg>
